icons/info.svg

<svg width="16" height="16" viewBox="0 0 16 16" fill="none" xmlns="http://www.w3.org/2000/svg">
<path fill-rule="evenodd" clip-rule="evenodd" d="M8.5478 13.9753C11.6048 13.6986 14 11.129 14 8C14 4.68629 11.3137 2 8 2C4.68629 2 2 4.68629 2 8C2 10.5901 3.64125 12.797 5.9405 13.6372C5.94626 13.6025 5.95209 13.5674 5.958 13.532L6.684 9.59399H5.76L5.804 9.19799H6.75C7.83533 9.19799 8.63467 9.15399 9.148 9.06599L9.456 8.99999L8.5478 13.9753ZM6.97 6.208C6.97 6.648 7.124 7.022 7.432 7.33C7.74 7.638 8.114 7.792 8.554 7.792C8.994 7.792 9.368 7.638 9.676 7.33C9.99867 7.022 10.16 6.648 10.16 6.208C10.16 5.768 9.99867 5.394 9.676 5.086C9.368 4.76333 8.994 4.602 8.554 4.602C8.114 4.602 7.74 4.76333 7.432 5.086C7.124 5.394 6.97 5.768 6.97 6.208Z" fill="#4BB9D1"/>
</svg>

<svg xmlns="http://www.w3.org/2000/svg" width="16" height="16" fill="none"><path fill="#4BB9D1" fill-rule="evenodd" d="M8.548 13.975a6 6 0 1 0-2.607-.338l.017-.105.726-3.938H5.76l.044-.396h.946c1.085 0 1.885-.044 2.398-.132L9.456 9l-.908 4.975ZM6.97 6.208c0 .44.154.814.462 1.122.308.308.682.462 1.122.462.44 0 .814-.154 1.122-.462.323-.308.484-.682.484-1.122 0-.44-.161-.814-.484-1.122a1.493 1.493 0 0 0-1.122-.484c-.44 0-.814.161-1.122.484a1.528 1.528 0 0 0-.462 1.122Z" clip-rule="evenodd"/></svg>
